svgs/light/trumpet.svg

<svg xmlns="http://www.w3.org/2000/svg" viewBox="0 0 640 512"><!--! Font Awesome Pro 6.6.0 by @fontawesome - https://fontawesome.com License - https://fontawesome.com/license (Commercial License) Copyright 2024 Fonticons, Inc. --><path d="M608 96.8l0 286.5c-10-14.3-33.6-45.3-67.1-73.1C507 282.1 461.3 256 408 256l-40 0-5.3 0L288 256l-80 0-48 0L32 256l0-32 176 0 80 0 80 0 40 0c53.3 0 99-26.1 132.9-54.1C574.4 142.1 598 111 608 96.8zM352 288l0 128-48 0 0-128 48 0zm32 128l0-128 24 0c42.8 0 81.4 21 112.5 46.8c30.9 25.6 52.8 54.6 61.7 67.4c5.9 8.5 15.6 13.9 26.4 13.9c17.4 0 31.4-14.1 31.4-31.4l0-289.1C640 78.1 625.9 64 608.6 64c-10.8 0-20.5 5.4-26.4 13.9c-8.9 12.8-30.8 41.8-61.7 67.4C489.4 171 450.8 192 408 192l-24 0 0-16c0-8.8-7.2-16-16-16s-16 7.2-16 16l0 16-48 0 0-16c0-8.8-7.2-16-16-16s-16 7.2-16 16l0 16-48 0 0-16c0-8.8-7.2-16-16-16s-16 7.2-16 16l0 16L32 192c0-8.8-7.2-16-16-16s-16 7.2-16 16l0 16 0 64 0 16c0 8.8 7.2 16 16 16s16-7.2 16-16l56.4 0C73.2 305 64 327.4 64 352c0 53 43 96 96 96l48 0 80 0 80 0 48 0c47.4 0 86.7-34.3 94.6-79.4c-3.4-3.1-6.9-6.2-10.5-9.2c-6.7-5.5-13.5-10.6-20.5-15.2c.3 2.6 .5 5.2 .5 7.8c0 35.3-28.7 64-64 64l-32 0zm-112 0l-48 0 0-128 48 0 0 128zm-80 0l-32 0c-35.3 0-64-28.7-64-64s28.7-64 64-64l32 0 0 128z"/></svg>

<svg xmlns="http://www.w3.org/2000/svg" viewBox="0 0 640 512"><!--! Font Awesome Pro 6.4.0 by @fontawesome - https://fontawesome.com License - https://fontawesome.com/license (Commercial License) Copyright 2023 Fonticons, Inc. --><path d="M608 96.8V383.2c-10-14.3-33.6-45.3-67.1-73.1C507 282.1 461.3 256 408 256H368h-5.3H288 208 160 32V224H208h80 80 40c53.3 0 99-26.1 132.9-54.1C574.4 142.1 598 111 608 96.8zM352 288V416H304V288h48zm32 128V288h24c42.8 0 81.4 21 112.5 46.8c30.9 25.6 52.8 54.6 61.7 67.4c5.9 8.5 15.6 13.9 26.4 13.9c17.4 0 31.4-14.1 31.4-31.4V95.4C640 78.1 625.9 64 608.6 64c-10.8 0-20.5 5.4-26.4 13.9c-8.9 12.8-30.8 41.8-61.7 67.4C489.4 171 450.8 192 408 192H384V176c0-8.8-7.2-16-16-16s-16 7.2-16 16v16H304V176c0-8.8-7.2-16-16-16s-16 7.2-16 16v16H224V176c0-8.8-7.2-16-16-16s-16 7.2-16 16v16H32c0-8.8-7.2-16-16-16s-16 7.2-16 16v16 64 16c0 8.8 7.2 16 16 16s16-7.2 16-16H88.4C73.2 305 64 327.4 64 352c0 53 43 96 96 96h48 80 80 48c47.4 0 86.7-34.3 94.6-79.4c-3.4-3.1-6.9-6.2-10.5-9.2c-6.7-5.5-13.5-10.6-20.5-15.2c.3 2.6 .5 5.2 .5 7.8c0 35.3-28.7 64-64 64H384zm-112 0H224V288h48V416zm-80 0H160c-35.3 0-64-28.7-64-64s28.7-64 64-64h32V416z"/></svg>
